X: 94
T: the Ship in Full Sail
R: jig
Z: 2012 John Chambers <jc@trillian.mit.edu>
B: "100 Essential Irish Session Tunes" 1995 Dave Mallinson, ed.
M: 6/8
L: 1/8
K: G
E |\
"G"DGG BGG | "G"dGG GBd | "C"efg "G"dBG | "D"AGA "C"BGE |\
"G"DGG BGG | "G"dGG GBd | "C"efg "G"dBG | "D"ABA "G"G2 :|
|: B |\
"G"dgg bgg | "D"aga "Em"bge | "G"dgg bgg | "D"aba "C"age |\
"G"dgg bgg | "B7"aga "Em"bgd | "C"efg "G"dBG | "D"ABA "G"G2 :|

%%sep 2 1 500
%%sep 1 1 500

